assets/illustrations/multisize/16/one.svg

<?xml version="1.0" encoding="utf-8"?>
<!-- Generator: Adobe Illustrator 21.1.0, SVG Export Plug-In . SVG Version: 6.00 Build 0)  -->
<svg version="1.1" xmlns="http://www.w3.org/2000/svg" xmlns:xlink="http://www.w3.org/1999/xlink" x="0px" y="0px"
	 viewBox="0 0 16 16" enable-background="new 0 0 16 16" xml:space="preserve">
<g id="TEMPLATE" display="none">
	<g display="inline">
		<path fill="#D0D0D0" d="M16,0v16H0V0H16 M17-1h-1H0h-1v1v16v1h1h16h1v-1V0V-1L17-1z"/>
	</g>
</g>
<g id="ICONS">
	<polygon fill="#FFFFFF" points="13,15 4,15 4,1 13,1 13,2 14,2 14,5 13,4.9998 	"/>
	<path fill="#949494" d="M13,1v1h1v3h-1v1v9H4V1H13 M14,0H3v16h11V6h1V1h-1V0L14,0z"/>
	<polygon fill="#7719AA" points="1,5 8,4 8,14 1,13 	"/>
	<rect x="8" y="11" fill="#C8C8C8" width="4" height="1"/>
	<rect x="8" y="9" fill="#C8C8C8" width="4" height="1"/>
	<rect x="8" y="7" fill="#C8C8C8" width="4" height="1"/>
	<rect x="8" y="5" fill="#C8C8C8" width="4" height="1"/>
	<rect x="5" y="2" fill="#C8C8C8" width="3" height="1"/>
	<g>
		<rect x="3" y="7" fill="#FFFFFF" width="1" height="4"/>
		<rect x="3" y="8" fill="#FFFFFF" width="1" height="1"/>
		<rect x="4" y="8" opacity="0.6" fill="#FFFFFF" width="1" height="1"/>
		<rect x="3" y="7" opacity="0.6" fill="#FFFFFF" width="1" height="1"/>
		<rect x="5" y="10" opacity="0.6" fill="#FFFFFF" width="1" height="1"/>
		<rect x="4" y="9" opacity="0.6" fill="#FFFFFF" width="1" height="1"/>
		<rect x="5" y="9" fill="#FFFFFF" width="1" height="1"/>
		<rect x="5" y="7" fill="#FFFFFF" width="1" height="4"/>
	</g>
</g>
</svg>

<svg id="6cb0a020-589f-4afc-91b0-ea8312cd444a" data-name="ICONS" xmlns="http://www.w3.org/2000/svg" viewBox="0 0 16 16"><title>FileTypeIcons_Master_All_NEW</title><polygon points="13 15 4 15 4 1 13 1 13 2 14 2 14 5 13 5 13 15" fill="#fff"/><path d="M13,1V2h1V5H13V15H4V1h9m1-1H3V16H14V6h1V1H14V0Z" fill="#949494"/><polygon points="1 5 8 4 8 14 1 13 1 5" fill="#7719aa"/><rect x="8" y="11" width="4" height="1" fill="#c8c8c8"/><rect x="8" y="9" width="4" height="1" fill="#c8c8c8"/><rect x="8" y="7" width="4" height="1" fill="#c8c8c8"/><rect x="8" y="5" width="4" height="1" fill="#c8c8c8"/><rect x="5" y="2" width="3" height="1" fill="#c8c8c8"/><rect x="3" y="7" width="1" height="4" fill="#fff"/><rect x="3" y="8" width="1" height="1" fill="#fff"/><rect x="4" y="8" width="1" height="1" fill="#fff" opacity="0.6"/><rect x="3" y="7" width="1" height="1" fill="#fff" opacity="0.6"/><rect x="5" y="10" width="1" height="1" fill="#fff" opacity="0.6"/><rect x="4" y="9" width="1" height="1" fill="#fff" opacity="0.6"/><rect x="5" y="9" width="1" height="1" fill="#fff"/><rect x="5" y="7" width="1" height="4" fill="#fff"/></svg>
